assets/icons/qvision/tablet.svg

<svg xmlns="http://www.w3.org/2000/svg" height="24" viewBox="0 0 24 24" width="24"><path d="M0 0h24v24H0z" fill="none"/><path d="M21 4H3c-1.1 0-2 .9-2 2v12c0 1.1.9 2 2 2h18c1.1 0 1.99-.9 1.99-2L23 6c0-1.1-.9-2-2-2zm-2 14H5V6h14v12z"/></svg>

<svg width="24" height="24" viewBox="0 0 24 24" fill="none" xmlns="http://www.w3.org/2000/svg">
<g clip-path="url(#clip0_147_3073)">
<path d="M21 4H3C1.9 4 1 4.9 1 6V18C1 19.1 1.9 20 3 20H21C22.1 20 22.99 19.1 22.99 18L23 6C23 4.9 22.1 4 21 4ZM19 18H5V6H19V18Z" fill="#323232"/>
</g>
<defs>
<clipPath id="clip0_147_3073">
<rect width="24" height="24" fill="white"/>
</clipPath>
</defs>
</svg>
